X: 102
T:Reel of Mullinavat
R:reel
M:C|
K:Edor
ef|gfed B2GF|GBAG E2B,E|GEB,E GABd|eBBA B2 ef|
g2fg edB=c|BAGF E3F|G2GF GABA|(3Bcd ed e2:|
ef|geBe gabg|afdf afdf|geBe gabg|afdf geef|
geBe gabg|afde fa~a2|bfaf gfed|Bgfg e2:|
